Avidclan_Website/assets/images/icons/cloud-ic.svg

<?xml version="1.0" encoding="utf-8"?>
<!-- Generator: Adobe Illustrator 24.1.1, SVG Export Plug-In . SVG Version: 6.00 Build 0)  -->
<svg version="1.1" id="Layer_1" xmlns="http://www.w3.org/2000/svg" xmlns:xlink="http://www.w3.org/1999/xlink" x="0px" y="0px"
	 viewBox="0 0 442.6 315.1" style="enable-background:new 0 0 442.6 315.1;" xml:space="preserve">
<style type="text/css">
	.st0{fill:#007AFB;}
</style>
<path class="st0" d="M105.7,315.1h238.4c33.8-0.1,65.1-17.5,83.2-46s20.3-64.3,5.9-94.9c-14.4-30.6-43.3-51.7-76.8-56
	c-3.8-41.5-27.3-78.7-63.2-100c-35.9-21.3-79.8-24.1-118.1-7.5c-38.3,16.6-66.3,50.5-75.3,91.2c-37.1,2.4-70.3,23.9-87.6,56.8
	C-5.1,191.7-4,231.2,15.1,263.2C34.2,295.1,68.5,314.8,105.7,315.1L105.7,315.1z M105.7,131.4h5.3c3.8,0.3,7.6-0.8,10.6-3.3
	c3-2.4,4.9-5.9,5.3-9.8c4.2-34.2,25.5-63.8,56.6-78.6c31.1-14.8,67.6-12.7,96.7,5.6c29.1,18.3,46.9,50.3,47.1,84.7v1.2
	c-0.2,4.2,1.3,8.3,4.3,11.3c3,3,7.1,4.5,11.4,4.3h1.1c24.7,0,47.6,13.2,60,34.6c12.4,21.4,12.4,47.8,0,69.3
	c-12.4,21.4-35.2,34.6-60,34.6H105.7c-20.9,0.6-41.1-7.2-56.1-21.7c-15-14.5-23.4-34.5-23.4-55.4s8.5-40.8,23.4-55.4
	c15-14.5,35.2-22.4,56.1-21.7L105.7,131.4z"/>
</svg>

<svg width="443" height="316" viewBox="0 0 443 316" fill="none" xmlns="http://www.w3.org/2000/svg">
<g clip-path="url(#clip0_493_284)">
<path d="M105.7 315.1H344.1C377.9 315 409.2 297.6 427.3 269.1C445.4 240.6 447.6 204.8 433.2 174.2C418.8 143.6 389.9 122.5 356.4 118.2C352.6 76.7 329.1 39.5 293.2 18.2C257.3 -3.10001 213.4 -5.90001 175.1 10.7C136.8 27.3 108.8 61.2 99.8 101.9C62.7 104.3 29.5 125.8 12.2 158.7C-5.1 191.7 -4 231.2 15.1 263.2C34.2 295.1 68.5 314.8 105.7 315.1ZM105.7 131.4H111C114.8 131.7 118.6 130.6 121.6 128.1C124.6 125.7 126.5 122.2 126.9 118.3C131.1 84.1 152.4 54.5 183.5 39.7C214.6 24.9 251.1 27 280.2 45.3C309.3 63.6 327.1 95.6 327.3 130V131.2C327.1 135.4 328.6 139.5 331.6 142.5C334.6 145.5 338.7 147 343 146.8H344.1C368.8 146.8 391.7 160 404.1 181.4C416.5 202.8 416.5 229.2 404.1 250.7C391.7 272.1 368.9 285.3 344.1 285.3H105.7C84.8 285.9 64.6 278.1 49.6 263.6C34.6 249.1 26.2 229.1 26.2 208.2C26.2 187.3 34.7 167.4 49.6 152.8C64.6 138.3 84.8 130.4 105.7 131.1V131.4Z" fill="#0E53BE"/>
</g>
<defs>
<clipPath id="clip0_493_284">
<rect width="442.6" height="315.1" fill="white"/>
</clipPath>
</defs>
</svg>
